SVG/mars.svg

<?xml version="1.0" encoding="utf-8"?>
<!-- Generated by IcoMoon.io -->
<!DOCTYPE svg PUBLIC "-//W3C//DTD SVG 1.1//EN" "http://www.w3.org/Graphics/SVG/1.1/DTD/svg11.dtd">
<svg version="1.1" xmlns="http://www.w3.org/2000/svg" xmlns:xlink="http://www.w3.org/1999/xlink" width="12" height="14" viewBox="0 0 12 14">
<path fill="#444444" d="M11.5 1q0.203 0 0.352 0.148t0.148 0.352v3.25q0 0.109-0.070 0.18t-0.18 0.070h-0.5q-0.109 0-0.18-0.070t-0.070-0.18v-2.047l-2.984 2.992q0.984 1.219 0.984 2.805 0 0.914-0.355 1.746t-0.961 1.438-1.438 0.961-1.746 0.355-1.746-0.355-1.438-0.961-0.961-1.438-0.355-1.746 0.355-1.746 0.961-1.438 1.438-0.961 1.746-0.355q1.586 0 2.805 0.984l2.984-2.984h-2.039q-0.109 0-0.18-0.070t-0.070-0.18v-0.5q0-0.109 0.070-0.18t0.18-0.070h3.25zM4.5 12q1.445 0 2.473-1.027t1.027-2.473-1.027-2.473-2.473-1.027-2.473 1.027-1.027 2.473 1.027 2.473 2.473 1.027z"></path>
</svg>

<svg xmlns="http://www.w3.org/2000/svg" viewBox="0 0 12 14"><path d="M11.5 1q.203 0 .352.148T12 1.5v3.25q0 .11-.07.18t-.18.07h-.5q-.11 0-.18-.07T11 4.75V2.703L8.016 5.695Q9 6.915 9 8.5q0 .914-.355 1.746t-.96 1.438-1.44.96T4.5 13t-1.746-.355-1.438-.96-.96-1.44T0 8.5t.355-1.746.96-1.438 1.44-.96T4.5 4q1.586 0 2.805.984L10.29 2H8.25q-.11 0-.18-.07T8 1.75v-.5q0-.11.07-.18T8.25 1h3.25zm-7 11q1.445 0 2.473-1.027T8 8.5 6.973 6.027 4.5 5 2.027 6.027 1 8.5t1.027 2.473T4.5 12z" /></svg>
